polaris-icons/icons/new-icons/GrammarMajor.svg

<svg width="20" height="20" viewBox="0 0 20 20" fill="none" xmlns="http://www.w3.org/2000/svg">
<path fill-rule="evenodd" clip-rule="evenodd" d="M7.69452 3.71703C7.57947 3.43463 7.30489 3.25 6.99995 3.25C6.69502 3.25 6.42044 3.43463 6.30538 3.71703L3.55538 10.467C3.3991 10.8506 3.58338 11.2883 3.96698 11.4446C4.35058 11.6009 4.78824 11.4166 4.94452 11.033L5.56907 9.5H8.25C8.30943 9.5 8.36725 9.49309 8.4227 9.48002L9.05538 11.033C9.21167 11.4166 9.64933 11.6009 10.0329 11.4446C10.4165 11.2883 10.6008 10.8506 10.4445 10.467L7.69452 3.71703ZM6.99995 5.98782L7.81973 8H6.18018L6.99995 5.98782Z" fill="#4A4A4A"/>
<path d="M3.5 13.25C3.5 12.8358 3.83579 12.5 4.25 12.5H14.25C14.6642 12.5 15 12.8358 15 13.25C15 13.6642 14.6642 14 14.25 14H4.25C3.83579 14 3.5 13.6642 3.5 13.25Z" fill="#4A4A4A"/>
<path d="M3.5 15.75C3.5 15.3358 3.83579 15 4.25 15H9.25C9.66421 15 10 15.3358 10 15.75C10 16.1642 9.66421 16.5 9.25 16.5H4.25C3.83579 16.5 3.5 16.1642 3.5 15.75Z" fill="#4A4A4A"/>
<path fill-rule="evenodd" clip-rule="evenodd" d="M13.5 5.5C14.0741 5.5 14.6105 5.66125 15.0664 5.94093C15.1842 5.6809 15.446 5.5 15.75 5.5C16.1642 5.5 16.5 5.83579 16.5 6.25V10.75C16.5 11.1642 16.1642 11.5 15.75 11.5C15.446 11.5 15.1842 11.3191 15.0664 11.0591C14.6105 11.3387 14.0741 11.5 13.5 11.5C11.8431 11.5 10.5 10.1569 10.5 8.5C10.5 6.84315 11.8431 5.5 13.5 5.5ZM15 8.5C15 9.32843 14.3284 10 13.5 10C12.6716 10 12 9.32843 12 8.5C12 7.67157 12.6716 7 13.5 7C14.3284 7 15 7.67157 15 8.5Z" fill="#4A4A4A"/>
<path d="M17.7803 14.2803C18.0732 13.9874 18.0732 13.5126 17.7803 13.2197C17.4874 12.9268 17.0126 12.9268 16.7197 13.2197L13.75 16.1893L12.5303 14.9697C12.2374 14.6768 11.7626 14.6768 11.4697 14.9697C11.1768 15.2626 11.1768 15.7374 11.4697 16.0303L13.2197 17.7803C13.5126 18.0732 13.9874 18.0732 14.2803 17.7803L17.7803 14.2803Z" fill="#4A4A4A"/>
</svg>

<svg viewBox="0 0 20 20" xmlns="http://www.w3.org/2000/svg"><path fill-rule="evenodd" d="M7.695 3.717a.75.75 0 0 0-1.39 0l-2.75 6.75a.75.75 0 0 0 1.39.566l.624-1.533h2.681c.06 0 .117-.007.173-.02l.632 1.553a.75.75 0 1 0 1.39-.566l-2.75-6.75Zm-.695 2.27.82 2.013h-1.64l.82-2.012Z" fill="#5C5F62"/><path d="M3.5 13.25a.75.75 0 0 1 .75-.75h10a.75.75 0 0 1 0 1.5h-10a.75.75 0 0 1-.75-.75Z" fill="#5C5F62"/><path d="M3.5 15.75a.75.75 0 0 1 .75-.75h5a.75.75 0 0 1 0 1.5h-5a.75.75 0 0 1-.75-.75Z" fill="#5C5F62"/><path fill-rule="evenodd" d="M13.5 5.5c.574 0 1.11.161 1.566.44a.75.75 0 0 1 1.434.31v4.5a.75.75 0 0 1-1.434.31 3 3 0 1 1-1.566-5.56Zm1.5 3a1.5 1.5 0 1 1-3 0 1.5 1.5 0 0 1 3 0Z" fill="#5C5F62"/><path d="M17.78 14.28a.75.75 0 1 0-1.06-1.06l-2.97 2.97-1.22-1.22a.75.75 0 1 0-1.06 1.06l1.75 1.75a.75.75 0 0 0 1.06 0l3.5-3.5Z" fill="#5C5F62"/></svg>
